X: 9
T:Uncle Reuben
% Nottingham Music Database
S:via PR
M:2/4
L:1/4
K:G
d/2|"G"g/2g/2 e/2d/2|g/2g/2 G|"G"g/2g/2 e/2d/2|"D7"A2|"G"g/4g/4g/4g/4 e/2d/2|\
"G"g/4g/4g/4g/4 e/2d/2|"D7"B3/4B/4 B/2A/2|"G"G3/2::
d/2|"G"e/2d/2 B/2A/2|B3/4B/4 B/2A/2|"G"B3/4B/4 B/2A/2|B3/4B/4 B/2d/2|\
"G"e/2d/2 B/2A/2|B3/4B/4 B/2A/2|"D7"B3/4B/4 B/2A/2|"G"G3/2:|


